X:1
T:Fair Betsy
M:3/4
L:1/8
K:C
C-D| F3 AF D| CC F2A-c| d3 dA A| cA A2A-c| c3 dA G| FF F3 F| AAG GG G|\
 FF F2||
